X:135
T:Nine Pint Coggie  (r)
B:NFID.072a (JD)
135nine_p
S:JD
N:All triplets in this tune are single-note in NF. I
changed them for playback purposes.
L:1/8
M:C
R:reel
Q:360
K:A
E|A2cA GABc|dcBA GEGB|(3AGA cA Bcdf|ecBd cAAa|
(3AGA cA GABc|dcBA GEFG|AcEc ABcd|ecdB cAA:|
a|(3aga Aa fddf|(3bab Bb geeg|(3aga Aa fdfa|ecBd cAAa|
(3aga Aa fddf|(3bab Bb gefg|agae fdfa|ecdB cAE:|

%%%

